src/4-icons/fingerprint.svg

<svg width="260" height="260" viewBox="0 0 260 260" fill="none" xmlns="http://www.w3.org/2000/svg">
<path d="M87.0656 52.8896C87.0656 50.6805 85.2748 48.8896 83.0656 48.8896C80.8565 48.8896 79.0656 50.6805 79.0656 52.8896H87.0656ZM68.0264 67.9288V71.9288V67.9288ZM56.9872 52.8896C56.9872 50.6805 55.1964 48.8896 52.9872 48.8896C50.7781 48.8896 48.9872 50.6805 48.9872 52.8896H56.9872ZM48.9472 36.4759C48.9472 38.6851 50.7381 40.4759 52.9472 40.4759C55.1564 40.4759 56.9472 38.6851 56.9472 36.4759H48.9472ZM67.9864 21.4367V17.4367V21.4367ZM79.0257 36.4759C79.0257 38.6851 80.8165 40.4759 83.0257 40.4759C85.2348 40.4759 87.0257 38.6851 87.0257 36.4759H79.0257ZM101.839 53.2962C101.799 51.0875 99.9755 49.3297 97.7668 49.3701C95.558 49.4105 93.8002 51.2338 93.8406 53.4426L101.839 53.2962ZM67.9864 83.7742V79.7742V83.7742ZM42.1323 53.4426C42.1727 51.2338 40.4149 49.4105 38.2061 49.3701C35.9973 49.3297 34.174 51.0875 34.1336 53.2962L42.1323 53.4426ZM34.1336 36.0593C34.174 38.2681 35.9973 40.0259 38.2061 39.9854C40.4149 39.945 42.1727 38.1217 42.1323 35.9129L34.1336 36.0593ZM67.9864 5.5813V1.5813V5.5813ZM93.8406 35.9129C93.8002 38.1217 95.558 39.945 97.7668 39.9854C99.9755 40.0259 101.799 38.2681 101.839 36.0593L93.8406 35.9129ZM71.9815 35.9861C71.9815 33.777 70.1906 31.9861 67.9815 31.9861C65.7723 31.9861 63.9815 33.777 63.9815 35.9861H71.9815ZM63.9815 52.8896C63.9815 55.0988 65.7723 56.8896 67.9815 56.8896C70.1906 56.8896 71.9815 55.0988 71.9815 52.8896H63.9815ZM115.242 147.393C115.242 149.602 117.033 151.393 119.242 151.393C121.451 151.393 123.242 149.602 123.242 147.393H115.242ZM119.242 114.456L115.242 114.43C115.242 114.439 115.242 114.447 115.242 114.456H119.242ZM113.764 106.459L115.185 102.72L115.183 102.719L113.764 106.459ZM104.018 109.218L100.849 106.777C100.797 106.844 100.748 106.912 100.701 106.982L104.018 109.218ZM91.5324 130L87.5914 129.315C87.5897 129.325 87.5879 129.336 87.5862 129.346L91.5324 130ZM94.2613 163.127L98.1955 162.405L98.1955 162.404L94.2613 163.127ZM121.381 212.298L125.375 212.509C125.45 211.09 124.766 209.738 123.579 208.956L121.381 212.298ZM115.237 252.792C115.121 254.998 116.815 256.881 119.021 256.997C121.227 257.114 123.11 255.42 123.226 253.214L115.237 252.792ZM166.852 115.955C166.852 118.164 168.643 119.955 170.852 119.955C173.061 119.955 174.852 118.164 174.852 115.955H166.852ZM170.852 107.619H174.852L174.852 107.609L170.852 107.619ZM157.937 94.7635V98.7635L157.946 98.7635L157.937 94.7635ZM145.042 107.659H141.042H145.042ZM145.042 115.955L141.042 116.017C141.076 118.213 142.875 119.972 145.072 119.955C147.27 119.938 149.042 118.153 149.042 115.955H145.042ZM143.942 44.053L139.943 44.1127L139.943 44.1142L143.942 44.053ZM132.547 32.8373L132.549 36.8373L132.551 36.8373L132.547 32.8373ZM121.151 43.983L117.152 43.8919L117.152 43.9021L121.151 43.983ZM119.242 138.267L115.243 138.186C115.242 138.213 115.242 138.24 115.242 138.267H119.242ZM115.242 147.363C115.242 149.572 117.033 151.363 119.242 151.363C121.451 151.363 123.242 149.572 123.242 147.363H115.242ZM191.804 118.268C192.032 120.466 193.999 122.062 196.196 121.833C198.393 121.605 199.989 119.638 199.761 117.441L191.804 118.268ZM195.213 112.377L199.191 111.963L199.191 111.958L195.213 112.377ZM194.743 107.908L190.764 108.322L190.765 108.327L194.743 107.908ZM182.907 97.1526L182.871 101.152L182.875 101.152L182.907 97.1526ZM170.802 109.148H174.802V109.148L170.802 109.148ZM166.802 115.955C166.802 118.164 168.593 119.955 170.802 119.955C173.011 119.955 174.802 118.164 174.802 115.955H166.802ZM203.808 253.016C203.815 255.225 205.612 257.01 207.821 257.003C210.03 256.995 211.815 255.199 211.808 252.99L203.808 253.016ZM207.688 216.377L204.671 213.75C204.034 214.482 203.685 215.42 203.688 216.39L207.688 216.377ZM222.402 130L226.394 129.749C226.389 129.659 226.38 129.569 226.368 129.48L222.402 130ZM219.473 114.226L215.593 115.196C215.594 115.202 215.595 115.207 215.597 115.212L219.473 114.226ZM219.393 113.906L223.274 112.936L223.272 112.927L219.393 113.906ZM207.908 104.96L207.906 108.96H207.908L207.908 104.96ZM192.144 118.476C192.378 120.673 194.347 122.265 196.544 122.032C198.741 121.799 200.333 119.829 200.1 117.633L192.144 118.476ZM79.0656 52.8896C79.0656 55.8174 77.9026 58.6253 75.8323 60.6955L81.4892 66.3524C85.0597 62.7818 87.0656 57.9391 87.0656 52.8896H79.0656ZM75.8323 60.6955C73.7621 62.7658 70.9542 63.9288 68.0264 63.9288V71.9288C73.076 71.9288 77.9186 69.9229 81.4892 66.3524L75.8323 60.6955ZM68.0264 63.9288C65.0987 63.9288 62.2908 62.7658 60.2205 60.6955L54.5637 66.3524C58.1342 69.9229 62.9769 71.9288 68.0264 71.9288V63.9288ZM60.2205 60.6955C58.1503 58.6253 56.9872 55.8174 56.9872 52.8896H48.9872C48.9872 57.9391 50.9931 62.7818 54.5637 66.3524L60.2205 60.6955ZM56.9472 36.4759C56.9472 33.5481 58.1103 30.7403 60.1805 28.67L54.5237 23.0132C50.9531 26.5837 48.9472 31.4264 48.9472 36.4759H56.9472ZM60.1805 28.67C62.2508 26.5998 65.0587 25.4367 67.9864 25.4367V17.4367C62.9369 17.4367 58.0942 19.4426 54.5237 23.0132L60.1805 28.67ZM67.9864 25.4367C70.9142 25.4367 73.7221 26.5998 75.7924 28.67L81.4492 23.0132C77.8787 19.4426 73.036 17.4367 67.9864 17.4367V25.4367ZM75.7924 28.67C77.8626 30.7403 79.0257 33.5481 79.0257 36.4759H87.0257C87.0257 31.4264 85.0197 26.5837 81.4492 23.0132L75.7924 28.67ZM93.8406 53.4426C93.9035 56.8776 93.2812 60.2908 92.0101 63.4826L99.4425 66.4423C101.107 62.263 101.922 57.794 101.839 53.2962L93.8406 53.4426ZM92.0101 63.4826C90.7391 66.6744 88.8447 69.581 86.4377 72.0324L92.1461 77.6373C95.2977 74.4274 97.7782 70.6216 99.4425 66.4423L92.0101 63.4826ZM86.4377 72.0324C84.0307 74.4839 81.1593 76.4311 77.9913 77.7604L81.0865 85.1373C85.2346 83.3968 88.9944 80.8472 92.1461 77.6373L86.4377 72.0324ZM77.9913 77.7604C74.8232 79.0896 71.4221 79.7742 67.9864 79.7742V87.7742C72.4849 87.7742 76.9383 86.8778 81.0865 85.1373L77.9913 77.7604ZM67.9864 79.7742C64.5508 79.7742 61.1497 79.0896 57.9816 77.7604L54.8864 85.1373C59.0346 86.8778 63.488 87.7742 67.9864 87.7742V79.7742ZM57.9816 77.7604C54.8136 76.4311 51.9422 74.4839 49.5352 72.0324L43.8268 77.6373C46.9785 80.8472 50.7383 83.3968 54.8864 85.1373L57.9816 77.7604ZM49.5352 72.0324C47.1282 69.581 45.2338 66.6744 43.9627 63.4826L36.5304 66.4423C38.1947 70.6216 40.6751 74.4274 43.8268 77.6373L49.5352 72.0324ZM43.9627 63.4826C42.6917 60.2908 42.0694 56.8776 42.1323 53.4426L34.1336 53.2962C34.0513 57.794 34.8661 62.263 36.5304 66.4423L43.9627 63.4826ZM42.1323 35.9129C42.0694 32.4779 42.6917 29.0648 43.9627 25.873L36.5304 22.9132C34.8661 27.0925 34.0513 31.5616 34.1336 36.0593L42.1323 35.9129ZM43.9627 25.873C45.2338 22.6811 47.1282 19.7746 49.5352 17.3231L43.8268 11.7183C40.6751 14.9281 38.1947 18.7339 36.5304 22.9132L43.9627 25.873ZM49.5352 17.3231C51.9422 14.8717 54.8136 12.9244 57.9816 11.5952L54.8864 4.21822C50.7382 5.95872 46.9785 8.50838 43.8268 11.7183L49.5352 17.3231ZM57.9816 11.5952C61.1497 10.2659 64.5508 9.5813 67.9864 9.5813V1.5813C63.488 1.5813 59.0346 2.47773 54.8864 4.21822L57.9816 11.5952ZM67.9864 9.5813C71.4221 9.5813 74.8232 10.2659 77.9913 11.5952L81.0865 4.21822C76.9383 2.47773 72.4849 1.5813 67.9864 1.5813V9.5813ZM77.9913 11.5952C81.1593 12.9244 84.0307 14.8717 86.4377 17.3231L92.1461 11.7183C88.9944 8.50838 85.2346 5.95872 81.0865 4.21822L77.9913 11.5952ZM86.4377 17.3231C88.8447 19.7746 90.7391 22.6811 92.0101 25.873L99.4425 22.9132C97.7782 18.7339 95.2977 14.9281 92.1461 11.7183L86.4377 17.3231ZM92.0101 25.873C93.2812 29.0648 93.9035 32.4779 93.8406 35.9129L101.839 36.0593C101.922 31.5616 101.107 27.0925 99.4425 22.9132L92.0101 25.873ZM63.9815 35.9861V52.8896H71.9815V35.9861H63.9815ZM123.242 147.393V114.456H115.242V147.393H123.242ZM123.242 114.482C123.258 111.934 122.495 109.441 121.055 107.339L114.455 111.86C114.973 112.617 115.248 113.513 115.242 114.43L123.242 114.482ZM121.055 107.339C119.615 105.237 117.567 103.625 115.185 102.72L112.343 110.198C113.2 110.524 113.937 111.104 114.455 111.86L121.055 107.339ZM115.183 102.719C112.675 101.767 109.927 101.648 107.345 102.379L109.524 110.076C110.453 109.813 111.442 109.856 112.345 110.199L115.183 102.719ZM107.345 102.379C104.764 103.109 102.486 104.652 100.849 106.777L107.187 111.659C107.776 110.894 108.595 110.339 109.524 110.076L107.345 102.379ZM104.018 109.218C100.701 106.982 100.701 106.982 100.701 106.982C100.701 106.982 100.7 106.983 100.7 106.983C100.7 106.984 100.699 106.985 100.698 106.986C100.697 106.988 100.694 106.992 100.691 106.996C100.685 107.005 100.676 107.019 100.664 107.036C100.641 107.071 100.607 107.122 100.562 107.188C100.473 107.321 100.343 107.516 100.177 107.764C99.8455 108.26 99.3723 108.97 98.8032 109.832C97.666 111.555 96.141 113.888 94.5963 116.322C93.0568 118.749 91.4746 121.311 90.234 123.482C89.6158 124.563 89.0565 125.592 88.6236 126.483C88.2588 127.233 87.7662 128.31 87.5914 129.315L95.4733 130.685C95.431 130.928 95.4279 130.784 95.8183 129.981C96.1407 129.318 96.6023 128.461 97.1794 127.452C98.3295 125.439 99.8355 122.997 101.351 120.609C102.861 118.229 104.358 115.938 105.479 114.24C106.039 113.392 106.504 112.694 106.829 112.208C106.991 111.965 107.118 111.776 107.204 111.647C107.247 111.583 107.28 111.534 107.302 111.502C107.313 111.486 107.321 111.473 107.327 111.465C107.329 111.461 107.331 111.458 107.333 111.456C107.333 111.455 107.334 111.455 107.334 111.454C107.334 111.454 107.334 111.454 107.334 111.454C107.334 111.454 107.334 111.454 104.018 109.218ZM87.5862 129.346C86.9078 133.44 87.0667 139.049 87.6171 144.952C88.1761 150.945 89.1734 157.57 90.3272 163.85L98.1955 162.404C97.0701 156.279 96.1132 149.899 95.5826 144.209C95.0435 138.429 94.9775 133.678 95.4786 130.654L87.5862 129.346ZM90.3272 163.85C92.0117 173.021 93.1628 182.204 96.8827 190.785C100.717 199.628 107.184 207.748 119.183 215.64L123.579 208.956C112.706 201.805 107.359 194.836 104.223 187.602C100.973 180.106 99.9996 172.226 98.1955 162.405L90.3272 163.85ZM117.386 212.087L115.237 252.792L123.226 253.214L125.375 212.509L117.386 212.087ZM174.852 115.955V107.619H166.852V115.955H174.852ZM174.852 107.609C174.847 105.392 174.405 103.197 173.552 101.151L166.168 104.229C166.617 105.306 166.849 106.461 166.852 107.628L174.852 107.609ZM173.552 101.151C172.698 99.104 171.45 97.2455 169.879 95.6812L164.235 101.351C165.062 102.174 165.719 103.152 166.168 104.229L173.552 101.151ZM169.879 95.6812C168.307 94.117 166.443 92.8775 164.392 92.0338L161.348 99.4319C162.427 99.8759 163.408 100.528 164.235 101.351L169.879 95.6812ZM164.392 92.0338C162.342 91.19 160.145 90.7583 157.928 90.7635L157.946 98.7635C159.113 98.7608 160.269 98.9879 161.348 99.4319L164.392 92.0338ZM157.937 90.7635C153.456 90.7635 149.159 92.5435 145.99 95.7119L151.647 101.369C153.315 99.7007 155.578 98.7635 157.937 98.7635V90.7635ZM145.99 95.7119C142.822 98.8804 141.042 103.178 141.042 107.659H149.042C149.042 105.299 149.979 103.037 151.647 101.369L145.99 95.7119ZM141.042 107.659V115.955H149.042V107.659H141.042ZM149.041 115.894L147.942 43.9918L139.943 44.1142L141.042 116.017L149.041 115.894ZM147.942 43.9933C147.881 39.9504 146.232 36.0937 143.35 33.2574L137.739 38.9591C139.122 40.3206 139.914 42.172 139.943 44.1127L147.942 43.9933ZM143.35 33.2574C140.468 30.4212 136.586 28.8333 132.543 28.8373L132.551 36.8373C134.492 36.8354 136.355 37.5976 137.739 38.9591L143.35 33.2574ZM132.544 28.8373C128.521 28.8398 124.658 30.4162 121.782 33.2294L127.375 38.9487C128.758 37.5963 130.615 36.8385 132.549 36.8373L132.544 28.8373ZM121.782 33.2294C118.905 36.0427 117.244 39.8696 117.152 43.8919L125.15 44.0742C125.194 42.1406 125.993 40.301 127.375 38.9487L121.782 33.2294ZM117.152 43.9021L115.243 138.186L123.241 138.348L125.15 44.064L117.152 43.9021ZM115.242 138.267V147.363H123.242V138.267H115.242ZM199.761 117.441L199.191 111.963L191.234 112.791L191.804 118.268L199.761 117.441ZM199.191 111.958L198.721 107.49L190.765 108.327L191.234 112.795L199.191 111.958ZM198.721 107.495C198.315 103.582 196.481 99.9561 193.569 97.3102L188.189 103.231C189.644 104.553 190.561 106.366 190.764 108.322L198.721 107.495ZM193.569 97.3102C190.658 94.6643 186.873 93.1841 182.939 93.1527L182.875 101.152C184.842 101.168 186.733 101.908 188.189 103.231L193.569 97.3102ZM182.944 93.1528C180.831 93.1334 178.735 93.5328 176.778 94.328L179.788 101.74C180.767 101.342 181.814 101.143 182.871 101.152L182.944 93.1528ZM176.778 94.328C174.82 95.1232 173.039 96.2983 171.539 97.7855L177.17 103.468C177.92 102.725 178.81 102.137 179.788 101.74L176.778 94.328ZM171.539 97.7855C170.038 99.2728 168.846 101.043 168.033 102.993L175.417 106.071C175.824 105.096 176.419 104.212 177.17 103.468L171.539 97.7855ZM168.033 102.993C167.22 104.943 166.802 107.035 166.802 109.148L174.802 109.148C174.802 108.092 175.011 107.046 175.417 106.071L168.033 102.993ZM166.802 109.148V115.955H174.802V109.148H166.802ZM211.808 252.99L211.688 216.364L203.688 216.39L203.808 253.016L211.808 252.99ZM210.705 219.003C228.05 199.078 229.332 176.574 226.394 129.749L218.41 130.25C221.37 177.43 219.593 196.61 204.671 213.75L210.705 219.003ZM226.368 129.48C225.811 125.235 225.624 123.316 225.305 121.497C224.972 119.601 224.481 117.685 223.35 113.24L215.597 115.212C216.765 119.804 217.158 121.357 217.425 122.879C217.706 124.479 217.833 125.928 218.436 130.52L226.368 129.48ZM223.354 113.256L223.274 112.936L215.513 114.876L215.593 115.196L223.354 113.256ZM223.272 112.927C222.408 109.507 220.428 106.472 217.645 104.304L212.729 110.616C214.107 111.689 215.087 113.192 215.515 114.885L223.272 112.927ZM217.645 104.304C214.862 102.137 211.435 100.959 207.908 100.96L207.908 108.96C209.654 108.96 211.351 109.542 212.729 110.616L217.645 104.304ZM207.91 100.96C205.687 100.958 203.489 101.425 201.459 102.329L204.712 109.637C205.717 109.19 206.805 108.959 207.906 108.96L207.91 100.96ZM201.459 102.329C199.428 103.232 197.61 104.553 196.124 106.205L202.07 111.557C202.806 110.739 203.706 110.085 204.712 109.637L201.459 102.329ZM196.124 106.205C194.637 107.857 193.514 109.803 192.829 111.917L200.439 114.385C200.778 113.338 201.334 112.375 202.07 111.557L196.124 106.205ZM192.829 111.917C192.143 114.032 191.91 116.266 192.144 118.476L200.1 117.633C199.984 116.538 200.099 115.432 200.439 114.385L192.829 111.917Z" fill="black"/>
</svg>

<svg width="260" height="260" fill="none" xmlns="http://www.w3.org/2000/svg"><path d="M87.066 52.89a4 4 0 1 0-8 0h8Zm-19.04 15.039v4-4Zm-11.039-15.04a4 4 0 1 0-8 0h8Zm-8.04-16.413a4 4 0 1 0 8 0h-8Zm19.04-15.04v-4 4Zm11.039 15.04a4 4 0 1 0 8 0h-8Zm22.813 16.82a4 4 0 1 0-7.998.147l7.998-.147ZM67.986 83.774v-4 4ZM42.132 53.443a4 4 0 0 0-7.998-.147l7.998.147Zm-7.998-17.384a4 4 0 1 0 7.998-.146l-7.998.146ZM67.986 5.581v-4 4Zm25.855 30.332a4 4 0 0 0 7.998.146l-7.998-.146Zm-21.86.073a4 4 0 0 0-8 0h8Zm-8 16.904a4 4 0 1 0 8 0h-8Zm51.261 94.503a4 4 0 0 0 8 0h-8Zm4-32.937-4-.026v.026h4Zm-5.478-7.997 1.421-3.739-.002-.001-1.419 3.74Zm-9.746 2.759-3.169-2.441a3.669 3.669 0 0 0-.148.205l3.317 2.236ZM91.532 130l-3.94-.685-.006.031 3.946.654Zm2.73 33.127 3.933-.722v-.001l-3.934.723Zm27.119 49.171 3.994.211a4.002 4.002 0 0 0-1.796-3.553l-2.198 3.342Zm-6.144 40.494a4 4 0 0 0 7.989.422l-7.989-.422Zm51.615-136.837a4 4 0 0 0 8 0h-8Zm4-8.336h4v-.01l-4 .01Zm-12.915-12.856v4h.009l-.009-4Zm-12.895 12.896h-4 4Zm0 8.296-4 .062a4 4 0 0 0 8-.062h-4Zm-1.1-71.902-3.999.06v.001l3.999-.061Zm-11.395-11.216.002 4h.002l-.004-4Zm-11.396 11.146-3.999-.091v.01l3.999.081Zm-1.909 94.284-3.999-.081-.001.081h4Zm-4 9.096a4 4 0 0 0 8 0h-8Zm76.562-29.095a3.999 3.999 0 1 0 7.957-.827l-7.957.827Zm3.409-5.891 3.978-.414v-.005l-3.978.419Zm-.47-4.469-3.979.414.001.005 3.978-.419Zm-11.836-10.755-.036 3.999h.004l.032-4Zm-12.105 11.995h4-4Zm-4 6.807a4 4 0 0 0 8 0h-8Zm37.006 137.061a4 4 0 0 0 8-.026l-8 .026Zm3.88-36.639-3.017-2.627a4.002 4.002 0 0 0-.983 2.64l4-.013ZM222.402 130l3.992-.251a3.448 3.448 0 0 0-.026-.269l-3.966.52Zm-2.929-15.774-3.88.97a.075.075 0 0 0 .004.016l3.876-.986Zm-.08-.32 3.881-.97-.002-.009-3.879.979Zm-11.485-8.946-.002 4h.002v-4Zm-15.764 13.516a4 4 0 0 0 7.956-.843l-7.956.843ZM79.066 52.89a11.04 11.04 0 0 1-3.234 7.806l5.657 5.656a19.04 19.04 0 0 0 5.577-13.462h-8Zm-3.234 7.806a11.039 11.039 0 0 1-7.806 3.233v8a19.04 19.04 0 0 0 13.463-5.577l-5.657-5.657Zm-7.806 3.233a11.04 11.04 0 0 1-7.805-3.233l-5.657 5.656a19.04 19.04 0 0 0 13.462 5.577v-8Zm-7.805-3.233a11.04 11.04 0 0 1-3.234-7.806h-8a19.04 19.04 0 0 0 5.577 13.462l5.657-5.657Zm-3.274-24.22a11.04 11.04 0 0 1 3.233-7.806l-5.656-5.657a19.039 19.039 0 0 0-5.577 13.463h8Zm3.233-7.806a11.04 11.04 0 0 1 7.806-3.233v-8c-5.05 0-9.892 2.006-13.462 5.576l5.657 5.657Zm7.806-3.233a11.04 11.04 0 0 1 7.806 3.233l5.657-5.657a19.039 19.039 0 0 0-13.463-5.576v8Zm7.806 3.233a11.04 11.04 0 0 1 3.234 7.806h8a19.04 19.04 0 0 0-5.577-13.463l-5.657 5.657Zm18.049 24.773a25.857 25.857 0 0 1-1.83 10.04l7.431 2.96a33.842 33.842 0 0 0 2.397-13.147l-7.998.147Zm-1.83 10.04a25.857 25.857 0 0 1-5.573 8.55l5.708 5.604a33.86 33.86 0 0 0 7.296-11.195l-7.432-2.96Zm-5.573 8.55a25.859 25.859 0 0 1-8.447 5.727l3.096 7.377a33.86 33.86 0 0 0 11.06-7.5l-5.71-5.605ZM77.99 77.76a25.86 25.86 0 0 1-10.005 2.014v8c4.499 0 8.952-.896 13.1-2.637L77.99 77.76Zm-10.005 2.014a25.86 25.86 0 0 1-10.004-2.014l-3.096 7.377a33.859 33.859 0 0 0 13.1 2.637v-8ZM57.982 77.76a25.859 25.859 0 0 1-8.447-5.728l-5.708 5.605a33.86 33.86 0 0 0 11.06 7.5l3.095-7.377Zm-8.447-5.728a25.859 25.859 0 0 1-5.572-8.55l-7.433 2.96a33.858 33.858 0 0 0 7.297 11.195l5.708-5.605Zm-5.572-8.55a25.86 25.86 0 0 1-1.83-10.04l-8-.146a33.859 33.859 0 0 0 2.397 13.146l7.433-2.96Zm-1.83-27.57a25.859 25.859 0 0 1 1.83-10.039l-7.433-2.96a33.859 33.859 0 0 0-2.396 13.146l7.998-.146Zm1.83-10.039a25.86 25.86 0 0 1 5.572-8.55l-5.708-5.605a33.857 33.857 0 0 0-7.297 11.195l7.433 2.96Zm5.572-8.55a25.859 25.859 0 0 1 8.447-5.728l-3.096-7.377a33.858 33.858 0 0 0-11.06 7.5l5.71 5.605Zm8.447-5.728a25.858 25.858 0 0 1 10.004-2.014v-8c-4.498 0-8.951.897-13.1 2.637l3.096 7.377Zm10.004-2.014c3.436 0 6.837.685 10.005 2.014l3.096-7.377a33.859 33.859 0 0 0-13.1-2.637v8Zm10.005 2.014a25.859 25.859 0 0 1 8.447 5.728l5.708-5.605a33.859 33.859 0 0 0-11.06-7.5l-3.095 7.377Zm8.447 5.728a25.857 25.857 0 0 1 5.572 8.55l7.432-2.96a33.859 33.859 0 0 0-7.296-11.195l-5.708 5.605Zm5.572 8.55a25.857 25.857 0 0 1 1.83 10.04l7.999.146a33.842 33.842 0 0 0-2.397-13.146l-7.432 2.96ZM63.981 35.986V52.89h8V35.986h-8Zm59.261 111.407v-32.937h-8v32.937h8Zm0-32.911a12.501 12.501 0 0 0-2.187-7.143l-6.6 4.521c.518.757.793 1.653.787 2.57l8 .052Zm-2.187-7.143a12.495 12.495 0 0 0-5.87-4.619l-2.842 7.478a4.5 4.5 0 0 1 2.112 1.662l6.6-4.521Zm-5.872-4.62a12.495 12.495 0 0 0-7.838-.34l2.179 7.697a4.495 4.495 0 0 1 2.821.123l2.838-7.48Zm-7.838-.34a12.494 12.494 0 0 0-6.496 4.398l6.338 4.882a4.494 4.494 0 0 1 2.337-1.583l-2.179-7.697Zm-3.327 6.839-3.317-2.236-.001.001-.002.003a.098.098 0 0 1-.007.01l-.027.04-.102.152-.385.576a442.36 442.36 0 0 0-5.58 8.558c-1.54 2.427-3.122 4.989-4.363 7.16a52.498 52.498 0 0 0-1.61 3.001c-.365.75-.858 1.827-1.033 2.832l7.882 1.37c-.042.243-.045.099.345-.704.323-.663.784-1.52 1.361-2.529 1.15-2.013 2.656-4.455 4.172-6.843a428.9 428.9 0 0 1 5.478-8.401l.375-.561.098-.145.025-.037a.035.035 0 0 1 .006-.009l.001-.002-3.316-2.236Zm-16.432 20.128c-.678 4.094-.52 9.703.031 15.606.56 5.993 1.556 12.618 2.71 18.898l7.868-1.446c-1.125-6.125-2.082-12.505-2.612-18.195-.54-5.78-.605-10.531-.104-13.555l-7.893-1.308Zm2.741 34.504c1.685 9.171 2.836 18.354 6.556 26.935 3.834 8.843 10.301 16.963 22.3 24.855l4.396-6.684c-10.873-7.151-16.22-14.12-19.356-21.354-3.25-7.496-4.223-15.376-6.028-25.197l-7.868 1.445Zm27.059 48.237-2.149 40.705 7.989.422 2.149-40.705-7.989-.422Zm57.466-96.132v-8.336h-8v8.336h8Zm0-8.346a16.884 16.884 0 0 0-1.3-6.458l-7.384 3.078a8.892 8.892 0 0 1 .684 3.399l8-.019Zm-1.3-6.458a16.903 16.903 0 0 0-3.673-5.47l-5.644 5.67a8.883 8.883 0 0 1 1.933 2.878l7.384-3.078Zm-3.673-5.47a16.887 16.887 0 0 0-5.487-3.647l-3.044 7.398a8.887 8.887 0 0 1 2.887 1.919l5.644-5.67Zm-5.487-3.647a16.88 16.88 0 0 0-6.464-1.27l.018 8a8.886 8.886 0 0 1 3.402.668l3.044-7.398Zm-6.455-1.27c-4.481 0-8.778 1.78-11.947 4.948l5.657 5.657a8.895 8.895 0 0 1 6.29-2.606v-8Zm-11.947 4.948a16.897 16.897 0 0 0-4.948 11.947h8c0-2.36.937-4.622 2.605-6.29l-5.657-5.657Zm-4.948 11.947v8.296h8v-8.296h-8Zm7.999 8.235-1.099-71.902-7.999.122 1.099 71.903 7.999-.123Zm-1.099-71.9a15.388 15.388 0 0 0-4.592-10.737l-5.611 5.702a7.387 7.387 0 0 1 2.204 5.154l7.999-.12Zm-4.592-10.737a15.386 15.386 0 0 0-10.807-4.42l.008 8a7.387 7.387 0 0 1 5.188 2.122l5.611-5.702Zm-10.806-4.42a15.405 15.405 0 0 0-10.762 4.392l5.593 5.72a7.407 7.407 0 0 1 5.174-2.112l-.005-8Zm-10.762 4.392a15.405 15.405 0 0 0-4.63 10.663l7.998.182a7.407 7.407 0 0 1 2.225-5.125l-5.593-5.72Zm-4.63 10.673-1.909 94.284 7.998.162 1.909-94.284-7.998-.162Zm-1.91 94.365v9.096h8v-9.096h-8Zm84.519-20.826-.57-5.478-7.957.828.57 5.477 7.957-.827Zm-.57-5.483-.47-4.468-7.956.837.469 4.468 7.957-.837Zm-.47-4.463a15.99 15.99 0 0 0-5.152-10.185l-5.38 5.921a7.994 7.994 0 0 1 2.575 5.091l7.957-.827Zm-5.152-10.185a15.995 15.995 0 0 0-10.63-4.157l-.064 7.999a7.997 7.997 0 0 1 5.314 2.079l5.38-5.92Zm-10.625-4.157a15.99 15.99 0 0 0-6.166 1.175l3.01 7.412a8.001 8.001 0 0 1 3.083-.588l.073-8Zm-6.166 1.175a15.983 15.983 0 0 0-5.239 3.457l5.631 5.683a7.993 7.993 0 0 1 2.618-1.728l-3.01-7.412Zm-5.239 3.457a16 16 0 0 0-3.506 5.208l7.384 3.078a8 8 0 0 1 1.753-2.603l-5.631-5.683Zm-3.506 5.208a15.994 15.994 0 0 0-1.231 6.155h8c0-1.056.209-2.102.615-3.077l-7.384-3.078Zm-1.231 6.155v6.807h8v-6.807h-8Zm45.006 143.842-.12-36.626-8 .026.12 36.626 8-.026Zm-1.103-33.987c17.345-19.925 18.627-42.429 15.689-89.254l-7.984.501c2.96 47.18 1.183 66.36-13.739 83.5l6.034 5.253Zm15.663-89.523c-.557-4.245-.744-6.164-1.063-7.983-.333-1.896-.824-3.812-1.955-8.257l-7.753 1.972c1.168 4.592 1.561 6.145 1.828 7.667.281 1.6.408 3.049 1.011 7.641l7.932-1.04Zm-3.014-16.224-.08-.32-7.761 1.94.08.32 7.761-1.94Zm-.082-.329a15.853 15.853 0 0 0-5.627-8.623l-4.916 6.312a7.848 7.848 0 0 1 2.786 4.269l7.757-1.958Zm-5.627-8.623a15.844 15.844 0 0 0-9.737-3.344v8c1.746 0 3.443.582 4.821 1.656l4.916-6.312Zm-9.735-3.344a15.823 15.823 0 0 0-6.451 1.369l3.253 7.308a7.841 7.841 0 0 1 3.194-.677l.004-8Zm-6.451 1.369a15.822 15.822 0 0 0-5.335 3.876l5.946 5.352a7.848 7.848 0 0 1 2.642-1.92l-3.253-7.308Zm-5.335 3.876a15.834 15.834 0 0 0-3.295 5.712l7.61 2.468a7.837 7.837 0 0 1 1.631-2.828l-5.946-5.352Zm-3.295 5.712a15.847 15.847 0 0 0-.685 6.559l7.956-.843a7.839 7.839 0 0 1 .339-3.248l-7.61-2.468Z" fill="#000"/></svg>
